X: 43
T: Quirquinchos de Corazon
O: Bolivia
F: http://www.youtube.com/watch?v=eZnkyvbZVSo
M: 2/4
L: 1/8
K: Em
%%MIDI program 72 % Piccolo
%%MIDI gchord fzcz
Q:1/4 = 144
"Em"bb/b/ ba|"G"g2 "Em"e2|"G"gg/g/ ge    |"D"d4 |\
"Em"bb/b/ ba|"G"g2 "Em"e2|"G"gg/g/ ge    |"D"d4 :|
"Em"eg2e    |"G"d2B2     |"Em"B/c/B/A/ BA|E4    |\
eg2e        |"G"d2B2     |"Em"B/c/B/A/ BA|E4    |



